osr2mp4 color correction new.cube
#Created by: Adobe Photoshop Export Color Lookup Plugin
#Copyright: (C) Copyright 2021 Zaphyr#5828
TITLE "color correction for osr2mp4"

#LUT size
LUT_3D_SIZE 8

#data domain
DOMAIN_MIN 0.0 0.0 0.0
DOMAIN_MAX 1.0 1.0 1.0

#LUT data points
0.000000 0.000000 0.000000
0.144531 0.000000 0.000000
0.289093 0.000000 0.000000
0.433624 0.000000 0.000000
0.578217 0.000000 0.000000
0.722778 0.000000 0.000000
0.867310 0.000000 0.000000
1.000000 0.000000 0.000000
0.000000 0.140076 0.000000
0.144531 0.140076 0.000000
0.289093 0.140076 0.000000
0.433624 0.140076 0.000000
0.578217 0.140076 0.000000
0.722778 0.140076 0.000000
0.867310 0.140076 0.000000
1.000000 0.140076 0.000000
0.000000 0.282104 0.000000
0.144531 0.282104 0.000000
0.289093 0.282104 0.000000
0.433624 0.282104 0.000000
0.578217 0.282104 0.000000
0.722778 0.282104 0.000000
0.867310 0.282104 0.000000
1.000000 0.282104 0.000000
0.000000 0.424896 0.000000
0.144531 0.424896 0.000000
0.289093 0.424896 0.000000
0.433624 0.424896 0.000000
0.578217 0.424896 0.000000
0.722778 0.424896 0.000000
0.867310 0.424896 0.000000
1.000000 0.424896 0.000000
0.000000 0.568207 0.000000
0.144531 0.568207 0.000000
0.289093 0.568207 0.000000
0.433624 0.568207 0.000000
0.578217 0.568207 0.000000
0.722778 0.568207 0.000000
0.867310 0.568207 0.000000
1.000000 0.568207 0.000000
0.000000 0.711884 0.000000
0.144531 0.711884 0.000000
0.289093 0.711884 0.000000
0.433624 0.711884 0.000000
0.578217 0.711884 0.000000
0.722778 0.711884 0.000000
0.867310 0.711884 0.000000
1.000000 0.711884 0.000000
0.000000 0.855804 0.000000
0.144531 0.855804 0.000000
0.289093 0.855804 0.000000
0.433624 0.855804 0.000000
0.578217 0.855804 0.000000
0.722778 0.855804 0.000000
0.867310 0.855804 0.000000
1.000000 0.855804 0.000000
0.000000 1.000000 0.000000
0.144531 1.000000 0.000000
0.289093 1.000000 0.000000
0.433624 1.000000 0.000000
0.578217 1.000000 0.000000
0.722778 1.000000 0.000000
0.867310 1.000000 0.000000
1.000000 1.000000 0.000000
0.000000 0.000000 0.147369
0.144531 0.000000 0.147369
0.289093 0.000000 0.147369
0.433624 0.000000 0.147369
0.578217 0.000000 0.147369
0.722778 0.000000 0.147369
0.867310 0.000000 0.147369
1.000000 0.000000 0.147369
0.000000 0.140076 0.147369
0.144531 0.140076 0.147369
0.289093 0.140076 0.147369
0.433624 0.140076 0.147369
0.578217 0.140076 0.147369
0.722778 0.140076 0.147369
0.867310 0.140076 0.147369
1.000000 0.140076 0.147369
0.000000 0.282104 0.147369
0.144531 0.282104 0.147369
0.289093 0.282104 0.147369
0.433624 0.282104 0.147369
0.578217 0.282104 0.147369
0.722778 0.282104 0.147369
0.867310 0.282104 0.147369
1.000000 0.282104 0.147369
0.000000 0.424896 0.147369
0.144531 0.424896 0.147369
0.289093 0.424896 0.147369
0.433624 0.424896 0.147369
0.578217 0.424896 0.147369
0.722778 0.424896 0.147369
0.867310 0.424896 0.147369
1.000000 0.424896 0.147369
0.000000 0.568207 0.147369
0.144531 0.568207 0.147369
0.289093 0.568207 0.147369
0.433624 0.568207 0.147369
0.578217 0.568207 0.147369
0.722778 0.568207 0.147369
0.867310 0.568207 0.147369
1.000000 0.568207 0.147369
0.000000 0.711884 0.147369
0.144531 0.711884 0.147369
0.289093 0.711884 0.147369
0.433624 0.711884 0.147369
0.578217 0.711884 0.147369
0.722778 0.711884 0.147369
0.867310 0.711884 0.147369
1.000000 0.711884 0.147369
0.000000 0.855804 0.147369
0.144531 0.855804 0.147369
0.289093 0.855804 0.147369
0.433624 0.855804 0.147369
0.578217 0.855804 0.147369
0.722778 0.855804 0.147369
0.867310 0.855804 0.147369
1.000000 0.855804 0.147369
0.000000 1.000000 0.147369
0.144531 1.000000 0.147369
0.289093 1.000000 0.147369
0.433624 1.000000 0.147369
0.578217 1.000000 0.147369
0.722778 1.000000 0.147369
0.867310 1.000000 0.147369
1.000000 1.000000 0.147369
0.000000 0.000000 0.292694
0.144531 0.000000 0.292694
0.289093 0.000000 0.292694
0.433624 0.000000 0.292694
0.578217 0.000000 0.292694
0.722778 0.000000 0.292694
0.867310 0.000000 0.292694
1.000000 0.000000 0.292694
0.000000 0.140076 0.292694
0.144531 0.140076 0.292694
0.289093 0.140076 0.292694
0.433624 0.140076 0.292694
0.578217 0.140076 0.292694
0.722778 0.140076 0.292694
0.867310 0.140076 0.292694
1.000000 0.140076 0.292694
0.000000 0.282104 0.292694
0.144531 0.282104 0.292694
0.289093 0.282104 0.292694
0.433624 0.282104 0.292694
0.578217 0.282104 0.292694
0.722778 0.282104 0.292694
0.867310 0.282104 0.292694
1.000000 0.282104 0.292694
0.000000 0.424896 0.292694
0.144531 0.424896 0.292694
0.289093 0.424896 0.292694
0.433624 0.424896 0.292694
0.578217 0.424896 0.292694
0.722778 0.424896 0.292694
0.867310 0.424896 0.292694
1.000000 0.424896 0.292694
0.000000 0.568207 0.292694
0.144531 0.568207 0.292694
0.289093 0.568207 0.292694
0.433624 0.568207 0.292694
0.578217 0.568207 0.292694
0.722778 0.568207 0.292694
0.867310 0.568207 0.292694
1.000000 0.568207 0.292694
0.000000 0.711884 0.292694
0.144531 0.711884 0.292694
0.289093 0.711884 0.292694
0.433624 0.711884 0.292694
0.578217 0.711884 0.292694
0.722778 0.711884 0.292694
0.867310 0.711884 0.292694
1.000000 0.711884 0.292694
0.000000 0.855804 0.292694
0.144531 0.855804 0.292694
0.289093 0.855804 0.292694
0.433624 0.855804 0.292694
0.578217 0.855804 0.292694
0.722778 0.855804 0.292694
0.867310 0.855804 0.292694
1.000000 0.855804 0.292694
0.000000 1.000000 0.292694
0.144531 1.000000 0.292694
0.289093 1.000000 0.292694
0.433624 1.000000 0.292694
0.578217 1.000000 0.292694
0.722778 1.000000 0.292694
0.867310 1.000000 0.292694
1.000000 1.000000 0.292694
0.000000 0.000000 0.437286
0.144531 0.000000 0.437286
0.289093 0.000000 0.437286
0.433624 0.000000 0.437286
0.578217 0.000000 0.437286
0.722778 0.000000 0.437286
0.867310 0.000000 0.437286
1.000000 0.000000 0.437286
0.000000 0.140076 0.437286
0.144531 0.140076 0.437286
0.289093 0.140076 0.437286
0.433624 0.140076 0.437286
0.578217 0.140076 0.437286
0.722778 0.140076 0.437286
0.867310 0.140076 0.437286
1.000000 0.140076 0.437286
0.000000 0.282104 0.437286
0.144531 0.282104 0.437286
0.289093 0.282104 0.437286
0.433624 0.282104 0.437286
0.578217 0.282104 0.437286
0.722778 0.282104 0.437286
0.867310 0.282104 0.437286
1.000000 0.282104 0.437286
0.000000 0.424896 0.437286
0.144531 0.424896 0.437286
0.289093 0.424896 0.437286
0.433624 0.424896 0.437286
0.578217 0.424896 0.437286
0.722778 0.424896 0.437286
0.867310 0.424896 0.437286
1.000000 0.424896 0.437286
0.000000 0.568207 0.437286
0.144531 0.568207 0.437286
0.289093 0.568207 0.437286
0.433624 0.568207 0.437286
0.578217 0.568207 0.437286
0.722778 0.568207 0.437286
0.867310 0.568207 0.437286
1.000000 0.568207 0.437286
0.000000 0.711884 0.437286
0.144531 0.711884 0.437286
0.289093 0.711884 0.437286
0.433624 0.711884 0.437286
0.578217 0.711884 0.437286
0.722778 0.711884 0.437286
0.867310 0.711884 0.437286
1.000000 0.711884 0.437286
0.000000 0.855804 0.437286
0.144531 0.855804 0.437286
0.289093 0.855804 0.437286
0.433624 0.855804 0.437286
0.578217 0.855804 0.437286
0.722778 0.855804 0.437286
0.867310 0.855804 0.437286
1.000000 0.855804 0.437286
0.000000 1.000000 0.437286
0.144531 1.000000 0.437286
0.289093 1.000000 0.437286
0.433624 1.000000 0.437286
0.578217 1.000000 0.437286
0.722778 1.000000 0.437286
0.867310 1.000000 0.437286
1.000000 1.000000 0.437286
0.000000 0.000000 0.581421
0.144531 0.000000 0.581421
0.289093 0.000000 0.581421
0.433624 0.000000 0.581421
0.578217 0.000000 0.581421
0.722778 0.000000 0.581421
0.867310 0.000000 0.581421
1.000000 0.000000 0.581421
0.000000 0.140076 0.581421
0.144531 0.140076 0.581421
0.289093 0.140076 0.581421
0.433624 0.140076 0.581421
0.578217 0.140076 0.581421
0.722778 0.140076 0.581421
0.867310 0.140076 0.581421
1.000000 0.140076 0.581421
0.000000 0.282104 0.581421
0.144531 0.282104 0.581421
0.289093 0.282104 0.581421
0.433624 0.282104 0.581421
0.578217 0.282104 0.581421
0.722778 0.282104 0.581421
0.867310 0.282104 0.581421
1.000000 0.282104 0.581421
0.000000 0.424896 0.581421
0.144531 0.424896 0.581421
0.289093 0.424896 0.581421
0.433624 0.424896 0.581421
0.578217 0.424896 0.581421
0.722778 0.424896 0.581421
0.867310 0.424896 0.581421
1.000000 0.424896 0.581421
0.000000 0.568207 0.581421
0.144531 0.568207 0.581421
0.289093 0.568207 0.581421
0.433624 0.568207 0.581421
0.578217 0.568207 0.581421
0.722778 0.568207 0.581421
0.867310 0.568207 0.581421
1.000000 0.568207 0.581421
0.000000 0.711884 0.581421
0.144531 0.711884 0.581421
0.289093 0.711884 0.581421
0.433624 0.711884 0.581421
0.578217 0.711884 0.581421
0.722778 0.711884 0.581421
0.867310 0.711884 0.581421
1.000000 0.711884 0.581421
0.000000 0.855804 0.581421
0.144531 0.855804 0.581421
0.289093 0.855804 0.581421
0.433624 0.855804 0.581421
0.578217 0.855804 0.581421
0.722778 0.855804 0.581421
0.867310 0.855804 0.581421
1.000000 0.855804 0.581421
0.000000 1.000000 0.581421
0.144531 1.000000 0.581421
0.289093 1.000000 0.581421
0.433624 1.000000 0.581421
0.578217 1.000000 0.581421
0.722778 1.000000 0.581421
0.867310 1.000000 0.581421
1.000000 1.000000 0.581421
0.000000 0.000000 0.725159
0.144531 0.000000 0.725159
0.289093 0.000000 0.725159
0.433624 0.000000 0.725159
0.578217 0.000000 0.725159
0.722778 0.000000 0.725159
0.867310 0.000000 0.725159
1.000000 0.000000 0.725159
0.000000 0.140076 0.725159
0.144531 0.140076 0.725159
0.289093 0.140076 0.725159
0.433624 0.140076 0.725159
0.578217 0.140076 0.725159
0.722778 0.140076 0.725159
0.867310 0.140076 0.725159
1.000000 0.140076 0.725159
0.000000 0.282104 0.725159
0.144531 0.282104 0.725159
0.289093 0.282104 0.725159
0.433624 0.282104 0.725159
0.578217 0.282104 0.725159
0.722778 0.282104 0.725159
0.867310 0.282104 0.725159
1.000000 0.282104 0.725159
0.000000 0.424896 0.725159
0.144531 0.424896 0.725159
0.289093 0.424896 0.725159
0.433624 0.424896 0.725159
0.578217 0.424896 0.725159
0.722778 0.424896 0.725159
0.867310 0.424896 0.725159
1.000000 0.424896 0.725159
0.000000 0.568207 0.725159
0.144531 0.568207 0.725159
0.289093 0.568207 0.725159
0.433624 0.568207 0.725159
0.578217 0.568207 0.725159
0.722778 0.568207 0.725159
0.867310 0.568207 0.725159
1.000000 0.568207 0.725159
0.000000 0.711884 0.725159
0.144531 0.711884 0.725159
0.289093 0.711884 0.725159
0.433624 0.711884 0.725159
0.578217 0.711884 0.725159
0.722778 0.711884 0.725159
0.867310 0.711884 0.725159
1.000000 0.711884 0.725159
0.000000 0.855804 0.725159
0.144531 0.855804 0.725159
0.289093 0.855804 0.725159
0.433624 0.855804 0.725159
0.578217 0.855804 0.725159
0.722778 0.855804 0.725159
0.867310 0.855804 0.725159
1.000000 0.855804 0.725159
0.000000 1.000000 0.725159
0.144531 1.000000 0.725159
0.289093 1.000000 0.725159
0.433624 1.000000 0.725159
0.578217 1.000000 0.725159
0.722778 1.000000 0.725159
0.867310 1.000000 0.725159
1.000000 1.000000 0.725159
0.000000 0.000000 0.868622
0.144531 0.000000 0.868622
0.289093 0.000000 0.868622
0.433624 0.000000 0.868622
0.578217 0.000000 0.868622
0.722778 0.000000 0.868622
0.867310 0.000000 0.868622
1.000000 0.000000 0.868622
0.000000 0.140076 0.868622
0.144531 0.140076 0.868622
0.289093 0.140076 0.868622
0.433624 0.140076 0.868622
0.578217 0.140076 0.868622
0.722778 0.140076 0.868622
0.867310 0.140076 0.868622
1.000000 0.140076 0.868622
0.000000 0.282104 0.868622
0.144531 0.282104 0.868622
0.289093 0.282104 0.868622
0.433624 0.282104 0.868622
0.578217 0.282104 0.868622
0.722778 0.282104 0.868622
0.867310 0.282104 0.868622
1.000000 0.282104 0.868622
0.000000 0.424896 0.868622
0.144531 0.424896 0.868622
0.289093 0.424896 0.868622
0.433624 0.424896 0.868622
0.578217 0.424896 0.868622
0.722778 0.424896 0.868622
0.867310 0.424896 0.868622
1.000000 0.424896 0.868622
0.000000 0.568207 0.868622
0.144531 0.568207 0.868622
0.289093 0.568207 0.868622
0.433624 0.568207 0.868622
0.578217 0.568207 0.868622
0.722778 0.568207 0.868622
0.867310 0.568207 0.868622
1.000000 0.568207 0.868622
0.000000 0.711884 0.868622
0.144531 0.711884 0.868622
0.289093 0.711884 0.868622
0.433624 0.711884 0.868622
0.578217 0.711884 0.868622
0.722778 0.711884 0.868622
0.867310 0.711884 0.868622
1.000000 0.711884 0.868622
0.000000 0.855804 0.868622
0.144531 0.855804 0.868622
0.289093 0.855804 0.868622
0.433624 0.855804 0.868622
0.578217 0.855804 0.868622
0.722778 0.855804 0.868622
0.867310 0.855804 0.868622
1.000000 0.855804 0.868622
0.000000 1.000000 0.868622
0.144531 1.000000 0.868622
0.289093 1.000000 0.868622
0.433624 1.000000 0.868622
0.578217 1.000000 0.868622
0.722778 1.000000 0.868622
0.867310 1.000000 0.868622
1.000000 1.000000 0.868622
0.000000 0.000000 1.000000
0.144531 0.000000 1.000000
0.289093 0.000000 1.000000
0.433624 0.000000 1.000000
0.578217 0.000000 1.000000
0.722778 0.000000 1.000000
0.867310 0.000000 1.000000
1.000000 0.000000 1.000000
0.000000 0.140076 1.000000
0.144531 0.140076 1.000000
0.289093 0.140076 1.000000
0.433624 0.140076 1.000000
0.578217 0.140076 1.000000
0.722778 0.140076 1.000000
0.867310 0.140076 1.000000
1.000000 0.140076 1.000000
0.000000 0.282104 1.000000
0.144531 0.282104 1.000000
0.289093 0.282104 1.000000
0.433624 0.282104 1.000000
0.578217 0.282104 1.000000
0.722778 0.282104 1.000000
0.867310 0.282104 1.000000
1.000000 0.282104 1.000000
0.000000 0.424896 1.000000
0.144531 0.424896 1.000000
0.289093 0.424896 1.000000
0.433624 0.424896 1.000000
0.578217 0.424896 1.000000
0.722778 0.424896 1.000000
0.867310 0.424896 1.000000
1.000000 0.424896 1.000000
0.000000 0.568207 1.000000
0.144531 0.568207 1.000000
0.289093 0.568207 1.000000
0.433624 0.568207 1.000000
0.578217 0.568207 1.000000
0.722778 0.568207 1.000000
0.867310 0.568207 1.000000
1.000000 0.568207 1.000000
0.000000 0.711884 1.000000
0.144531 0.711884 1.000000
0.289093 0.711884 1.000000
0.433624 0.711884 1.000000
0.578217 0.711884 1.000000
0.722778 0.711884 1.000000
0.867310 0.711884 1.000000
1.000000 0.711884 1.000000
0.000000 0.855804 1.000000
0.144531 0.855804 1.000000
0.289093 0.855804 1.000000
0.433624 0.855804 1.000000
0.578217 0.855804 1.000000
0.722778 0.855804 1.000000
0.867310 0.855804 1.000000
1.000000 0.855804 1.000000
0.000000 1.000000 1.000000
0.144531 1.000000 1.000000
0.289093 1.000000 1.000000
0.433624 1.000000 1.000000
0.578217 1.000000 1.000000
0.722778 1.000000 1.000000
0.867310 1.000000 1.000000
1.000000 1.000000 1.000000
